src/assets/filled/CloudRemove.svg

<svg width="24" height="24" viewBox="0 0 24 24"  xmlns="http://www.w3.org/2000/svg">
<path d="M12 11.5303C9.24 11.5303 7 13.7703 7 16.5303C7 17.2703 7.16 17.9703 7.46 18.5903C7.54 18.7703 7.63 18.9403 7.73 19.1003C8.59 20.5503 10.18 21.5303 12 21.5303C13.82 21.5303 15.41 20.5503 16.27 19.1003C16.37 18.9403 16.46 18.7703 16.54 18.5903C16.84 17.9703 17 17.2703 17 16.5303C17 13.7703 14.76 11.5303 12 11.5303ZM13.5 18.1403C13.35 18.2903 13.16 18.3603 12.97 18.3603C12.78 18.3603 12.59 18.2903 12.44 18.1403L11.91 17.6103L11.36 18.1603C11.21 18.3103 11.02 18.3803 10.83 18.3803C10.64 18.3803 10.45 18.3103 10.3 18.1603C10.01 17.8703 10.01 17.3903 10.3 17.1003L10.85 16.5503L10.32 16.0203C10.03 15.7303 10.03 15.2503 10.32 14.9603C10.61 14.6703 11.09 14.6703 11.38 14.9603L11.91 15.4903L12.41 14.9903C12.7 14.7003 13.18 14.7003 13.47 14.9903C13.76 15.2803 13.76 15.7603 13.47 16.0503L12.97 16.5503L13.5 17.0803C13.79 17.3803 13.79 17.8503 13.5 18.1403Z" />
<path d="M20.2001 17.29C19.8401 17.61 19.4501 17.88 19.0301 18.1C18.6701 18.28 18.3101 17.93 18.3701 17.53C18.4101 17.24 18.4301 16.94 18.4301 16.63C18.4301 13.05 15.5101 10.13 11.9301 10.13C8.35007 10.13 5.43007 13.05 5.43007 16.63C5.43007 17.09 5.48007 17.53 5.57007 17.96C5.64007 18.31 5.37007 18.66 5.02007 18.57C1.07007 17.61 1.05007 11.53 5.47007 11.21H5.52007C2.31007 2.28996 15.8501 -1.28004 17.4001 8.09996C21.7301 8.64996 23.4801 14.42 20.2001 17.29Z" />
</svg>

<?xml version="1.0" encoding="UTF-8"?>
<svg width="24" height="24" viewBox="0 0 24 24" xmlns="http://www.w3.org/2000/svg">
 <path d="m12 11.53c-2.76 0-5 2.24-5 5 0 0.74 0.16 1.44 0.46 2.06 0.08 0.18 0.17 0.35 0.27 0.51 0.86 1.45 2.45 2.43 4.27 2.43s3.41-0.98 4.27-2.43c0.1-0.16 0.19-0.33 0.27-0.51 0.3-0.62 0.46-1.32 0.46-2.06 0-2.76-2.24-5-5-5zm1.5 6.61c-0.15 0.15-0.34 0.22-0.53 0.22s-0.38-0.07-0.53-0.22l-0.53-0.53-0.55 0.55c-0.15 0.15-0.34 0.22-0.53 0.22s-0.38-0.07-0.53-0.22c-0.29-0.29-0.29-0.77 0-1.06l0.55-0.55-0.53-0.53c-0.29-0.29-0.29-0.77 0-1.06s0.77-0.29 1.06 0l0.53 0.53 0.5-0.5c0.29-0.29 0.77-0.29 1.06 0s0.29 0.77 0 1.06l-0.5 0.5 0.53 0.53c0.29 0.3 0.29 0.77 0 1.06z"/>
 <path d="m20.2 17.29c-0.36 0.32-0.75 0.59-1.17 0.81-0.36 0.18-0.72-0.17-0.66-0.57 0.04-0.29 0.06-0.59 0.06-0.9 0-3.58-2.92-6.5-6.5-6.5-3.58 0-6.5 2.92-6.5 6.5 0 0.46 0.05 0.9 0.14 1.33 0.07 0.35-0.2 0.7-0.55 0.61-3.95-0.96-3.97-7.04 0.45-7.36h0.05c-3.21-8.92 10.33-12.49 11.88-3.11 4.33 0.55 6.08 6.32 2.8 9.19z"/>
</svg>
